!!!!SEGMENT: pl-gd--ee-2628--006-015_stabile-annibale--il-terzo-libro-de-madrigali-a-cinque-voci-facea-con-gli-occhi.krn
!!!cenid: 15xx:1082
!!!COM: Stabile, Annibale
!!!COM-rismID: pe30009662
!!!CDT: ~1535-1595/04
!!!CNT: Italian
!!!GTL: Il terzo libro de madrigali a cinque voci
!!!OTL: Facea con gli occhi
!!!OMV: 015
!!!PDT: 1585
!!!AGN:
!!!SMS-siglum: PL-GD
!!!SMS-shelfmark: Ee 2628
!!!SMS-shelfwork: 006-015 G
!!!SMS-variant:
!!!SMS-altvar:
!!!NIFC-rismSourceID: 990060530
!!!NIFC-islandoraID: pl-gd:66139
!!!URL-pdf-islandora: https://repozytorium.nifc.pl/islandora/object/pl-gd%3A66139/datastream/PDF/view
!!!URL-scan: https://polish.musicsources.pl/pl/lokalizacje/galeria/klocki-introligatorskie/673 @EN{Scan on Polish Music Herritage in Open Access Website} @PL{Skany w portalu Dziedzictwo Muzyki Polskiej w otwartym dostępie}
!!!ONB-nifc: UWAGA: Canto: s. 90-101, Tenore: s. 246-257, Basso: s. 402-413, Quinto: s. 724-735. Dla głosu Alto proszę skorzystać z https://pbc.gda.pl/dlibra/publication/87582/edition/79411/content, str. 25-48. Uwaga: utwory podzielone wg spisu treści dostępnych na końcu ksiąg – proszę sprawdzać sąsiednie tytuły. Głos Quinto proszę umieszczać wg ambitusu (może się różnić w zależności od utworu).
!!!AIN: 1 alto 1 bass 1 soprn 1 tenor 1 vox
!!!key: C
**kern	**text	**kern	**text	**kern	**text	**kern	**text	**kern	**text
*part5	*part5	*part4	*part4	*part3	*part3	*part2	*part2	*part1	*part1
*staff5	*staff5	*staff4	*staff4	*staff3	*staff3	*staff2	*staff2	*staff1	*staff1
*I"BASSO	*	*I"TENORE	*	*I"ALTO	*	*I"QVINTO	*	*I"CANTO	*
*I'B	*	*I'T	*	*I'A	*	*I'V	*	*I'S	*
*ICvox	*	*ICvox	*	*ICvox	*	*ICvox	*	*ICvox	*
*Ibass	*	*Itenor	*	*Ialto	*	*Ivox	*	*Isoprn	*
*clefF3	*	*clefC3	*	*clefC2	*	*clefC3	*	*clefG2	*
*k[]	*	*k[]	*	*k[]	*	*k[]	*	*k[]	*
*C:	*	*C:	*	*C:	*	*C:	*	*C:	*
*M2/1	*	*M2/1	*	*M2/1	*	*M2/1	*	*M2/1	*
*met(C)	*	*met(C)	*	*met(C)	*	*met(C)	*	*met(C)	*
=1-	=1-	=1-	=1-	=1-	=1-	=1-	=1-	=1-	=1-
00r	.	00r	.	2r	.	00r	.	1cc	FA-
.	.	.	.	2cc\	FA-	.	.	.	.
.	.	.	.	2b\	-cea	.	.	2gg\	-cea
.	.	.	.	2cc\	con	.	.	2ee\	con
=2-	=2-	=2-	=2-	=2-	=2-	=2-	=2-	=2-	=2-
.	.	.	.	2a\	gl`oc-	.	.	2ff\	gl`oc-
.	.	.	.	4g\	-chi	.	.	2ee\	-chi
.	.	.	.	2cc\	tra-	.	.	.	.
.	.	.	.	.	.	.	.	2.gg\	tra-
.	.	.	.	4b\	-mon-	.	.	.	.
.	.	.	.	4cc\	-tar	.	.	.	.
.	.	.	.	2dd\	le	.	.	4ff\	-mon-
=3-	=3-	=3-	=3-	=3-	=3-	=3-	=3-	=3-	=3-
0r	.	0r	.	.	.	2c/	FA-	4gg\	-tar
.	.	.	.	2cc\	ſte-	.	.	4ee\	le
.	.	.	.	.	.	2g\	-cea	2dd\	ſte-
.	.	.	.	4b\	.	.	.	.	.
.	.	.	.	4.cc\	.	2e\	con	0cc	-le
.	.	.	.	8b\	.	.	.	.	.
.	.	.	.	2a\	.	2f\	gl`oc-	.	.
*	*	*	*	*custos:g	*	*	*	*	*
!	!	!	!	!LO:LB:g=original	!	!	!	!	!
=4-	=4-	=4-	=4-	=4-	=4-	=4-	=4-	=4-	=4-
2r	.	1c	FA-	0g	-le	4e\	-chi	.	.
.	.	.	.	.	.	2e\	tra-	.	.
2C/	FA-	.	.	.	.	.	.	.	.
.	.	.	.	.	.	4e\	-mon-	.	.
2G\	-cea	2B/	-cea	.	.	4d\	-tar	1r	.
.	.	.	.	.	.	4d\	le	.	.
2E/	con	2c/	con	.	.	2e\	ſte-	.	.
=5-	=5-	=5-	=5-	=5-	=5-	=5-	=5-	=5-	=5-
2F/	gl`oc-	2A/	gl`oc-	0r	.	2c/	-le	0r	.
2E/	-chi	4G/	-chi	.	.	4r	.	.	.
.	.	2c/	tra-	.	.	4e\	Fa-	.	.
2.G\	tra-	.	.	.	.	2d\	-cea	.	.
.	.	4B/	-mon-	.	.	.	.	.	.
*	*	*	*	*	*	*custos:e	*	*	*
!	!	!	!	!	!	!LO:LB:g=original	!	!	!
.	.	4c/	-tar	.	.	4e\	con	.	.
4F#X/	-mon-	4A/	le	.	.	2d\	gl`oc-	.	.
=6-	=6-	=6-	=6-	=6-	=6-	=6-	=6-	=6-	=6-
4G\	-tar	4B/	ſtel-	2g\	Fa-	.	.	2g/	Fa-
4E/	le	8A/	.	.	.	4c/	-chi	.	.
.	.	8G/	.	.	.	.	.	.	.
2D/	ſtel-	2A/	.	2f#X\	-cea	1d	tra-	2dd\	-cea
*	*	*	*	*	*	*	*	*custos:b	*
!	!	!	!	!	!	!	!	!LO:LB:g=original	!
2G\	-le	2G/	-le	2g\	con	.	.	2b/	con
*	*	*custos:g	*	*	*	*	*	*	*
!	!	!LO:LB:g=original	!	!	!	!	!	!	!
2r	.	2.g\	tra-	2e/	gl`oc-	2c/	-mon-	2cc\	gl`oc-
*custos:C	*	*	*	*	*	*	*	*	*
!LO:LB:g=original	!	!	!	!	!	!	!	!	!
=7-	=7-	=7-	=7-	=7-	=7-	=7-	=7-	=7-	=7-
0r	.	.	.	4d/	-chi	2G/	-tar	2b/	-chi
.	.	4g\	-mon-	2g\	tra-	.	.	.	.
.	.	4b\	-tar	.	.	2d\	le	4r	.
.	.	2a\	le	4f#X\	-mon-	.	.	2dd\	tra-
.	.	.	.	2g\	-tar	2e\	ſte-	.	.
.	.	2g\	ſtel-	.	.	.	.	4cc\	-mon-
.	.	.	.	4a\	le	2d\	-le	2dd\	-tar
.	.	4f#X\	.	4.a\	ſte-	.	.	.	.
=8-	=8-	=8-	=8-	=8-	=8-	=8-	=8-	=8-	=8-
1r	.	2g\	-le	.	.	1r	.	2b/	le
.	.	.	.	8g\	.	.	.	.	.
.	.	.	.	2g\	.	.	.	.	.
.	.	2r	.	.	.	.	.	2a/	ſtel-
.	.	.	.	4f#X\	.	.	.	.	.
2r	.	2r	.	2g\	-le	2r	.	2b/	-le
2C/	La	2c/	La	2cc\	La	2g\	La	2ee\	La
=9-	=9-	=9-	=9-	=9-	=9-	=9-	=9-	=9-	=9-
2C/	mia	2c/	mia	2cc\	mia	2g\	mia	2ee\	mia
2C/	Li-	2c/	Li-	2cc\	Li-	2g\	Li-	2ee\	Li-
1Fny	-co-	1c	-co-	1cc	-co-	1a	-co-	1ff	-co-
=10-	=10-	=10-	=10-	=10-	=10-	=10-	=10-	=10-	=10-
2C/	-ri	1c	-ri	1cc	-ri	0g	-ri	2ee\	-ri
2c\	e	.	.	.	.	.	.	2ee\	e
2B\	fe-	1r	.	1r	.	.	.	2dd\	fe-
2c\	-a	.	.	.	.	.	.	2ee\	-a
=11-	=11-	=11-	=11-	=11-	=11-	=11-	=11-	=11-	=11-
4r	.	2e\	e	0r	.	0r	.	4r	.
2A\	A	.	.	.	.	.	.	2cc\	A
.	.	2fny\	fe-	.	.	.	.	.	.
4B\	gl`hor-	.	.	.	.	.	.	4dd\	gl`hor-
*	*	*	*	*	*	*	*	*custos:ee	*
!	!	!	!	!	!	!	!	!LO:LB:g=original	!
2c\	-ro-	2e\	-a	.	.	.	.	2ee\	-ro-
4B\	-ri	4r	.	.	.	.	.	4dd\	-ri
4c\	not-	2g\	a	.	.	.	.	4ee\	not-
*	*	*	*	*custos:cc	*	*	*	*	*
!	!	!	!	!LO:LB:g=original	!	!	!	!	!
=12-	=12-	=12-	=12-	=12-	=12-	=12-	=12-	=12-	=12-
1A	-tur-	.	.	2r	.	2r	.	2cc\	-tur-
.	.	4f\	gl`hor-	.	.	.	.	.	.
.	.	2e\	-ro-	2cc\	e	2c/	e	2a/	-ni
2G\	-ni	4.g\	-ri	2b\	fea-	2d\	fe-	1r	.
.	.	8f\	.	.	.	.	.	.	.
*	*	*custos:e	*	*	*	*	*	*	*
!	!	!LO:LB:g=original	!	!	!	!	!	!	!
4r	.	4e\	.	4cc\	-a	2c\	-a	.	.
2F/	A	4f\	not-	2a\	A	.	.	.	.
=13-	=13-	=13-	=13-	=13-	=13-	=13-	=13-	=13-	=13-
.	gl`hor-	2d\	-tur-	.	.	4r	.	0r	.
4G\	-ro-	.	.	4b\	gl`hor-	4g\	A	.	.
*	*	*	*	*	*	*custos:f	*	*	*
!	!	!	!	!	!	!LO:LB:g=original	!	!	!
2A\	-ri	2c/	-ni	2cc\	-ror-	4f\	gl`hor-	.	.
.	.	.	.	.	.	4.e\	-ro-	.	.
4G\	not-	1r	.	4b\	-ri	.	.	.	.
.	.	.	.	.	.	8e\	-ri	.	.
4A\	-tur-	.	.	4cc\	not-	4e\	not-	.	.
2F/	-ni	.	.	2a\	-tur-	2d\	-tur-	.	.
=14-	=14-	=14-	=14-	=14-	=14-	=14-	=14-	=14-	=14-
2E/	il-	2r	.	2g\	-ni	1e	-ni	2r	.
2.A\	-lu-	2c/	il-	2.cc\	il-	.	.	1a	il-
.	.	2e\	-lu-	.	.	2.c\	il-	.	.
4G\	.	.	.	4b\	-lu-	.	.	.	.
4F/	.	2A/	ſtre	4a\	.	.	.	2.ff\	-lu-
4E/	.	.	.	4g\	.	8d\	-lu-	.	.
.	.	.	.	.	.	8e\	.	.	.
=15-	=15-	=15-	=15-	=15-	=15-	=15-	=15-	=15-	=15-
2D/	.	1d	ſcor-	2a\	.	2f\	.	.	.
.	.	.	.	.	.	.	.	4ee\	.
2BB/	ſtre	.	.	2d/	ſtre	2g\	ſtre	1dd	.
1C	ſcor-	1G	-no	0g	ſcor-	2.e\	ſcor-	.	.
.	.	.	.	.	.	.	.	1cc\	ſtre
.	.	.	.	.	.	8d\	.	.	.
.	.	.	.	.	.	8c\	.	.	.
=16-	=16-	=16-	=16-	=16-	=16-	=16-	=16-	=16-	=16-
1G	-no	1r	.	.	.	1d	.	.	.
.	.	.	.	.	.	.	.	2b/	ſcor-
1r	.	4g\	Ne	1e	-no	1c	-no	1cc	-no
.	.	4g\	pe-	.	.	.	.	.	.
.	.	2g\	-rò	.	.	.	.	.	.
=17-	=17-	=17-	=17-	=17-	=17-	=17-	=17-	=17-	=17-
2r	.	4e\	fuor	4cc\	Ne	0r	.	2r	.
.	.	4a\	del	4cc\	pe-	.	.	.	.
4c\	Ne	4.g\	Gan-	2cc\	-rò	.	.	4ee\	Ne
4c\	pe-	.	.	.	.	.	.	4ee\	pe-
.	.	8f\	.	.	.	.	.	.	.
2c\	-rò	4e\	.	4g\	fuor	.	.	2ee\	-ró
.	.	4c/	-ge il	4g\	del	.	.	.	.
*	*	*	*	*custos:a	*	*	*	*	*
!	!	!	!	!LO:LB:g=original	!	!	!	!	!
4A\	fuor	4c/	ſol	4.a\	Gan-	.	.	4cc\	fuor
4d\	del	4d\	tra-	.	.	.	.	4ff\	del
.	.	.	.	8b\	.	.	.	.	.
*custos:c	*	*custos:e	*	*	*	*	*	*	*
!LO:LB:g=original	!	!LO:LB:g=original	!	!	!	!	!	!	!
=18-	=18-	=18-	=18-	=18-	=18-	=18-	=18-	=18-	=18-
2c\	Gan-	4.e\	-he-	4cc\	.	4g\	Ne	2ee\	Gan-
.	.	.	.	4c/	-ge il	4g\	pe-	.	.
.	.	8f\	.	.	.	.	.	.	.
*	*	*	*	*	*	*	*	*custos:dd	*
!	!	!	!	!	!	!	!	!LO:LB:g=original	!
4B\	-ge il	4g\	.	4d/	ſol	2g\	-rò	4dd\	-ge il
2c\	ſol	4e\	-a	2g\	tra-	.	.	2ee\	ſon
.	.	1r	.	.	.	4e\	fuor	.	.
4F/	tra-	.	.	8fny\	-he-	4a\	del	4cc\	tra-
.	.	.	.	8e\	.	.	.	.	.
*	*	*	*	*	*	*custos:g	*	*	*
!	!	!	!	!	!	!LO:LB:g=original	!	!	!
2G\	-he-	.	.	2d/	.	2g\	Gan-	2b/	-he-
=19-	=19-	=19-	=19-	=19-	=19-	=19-	=19-	=19-	=19-
1D	-a	2r	.	2d/	a	4f#X\	-ge il	2a/	-a
.	.	.	.	.	.	2g\	ſol	.	.
.	.	2d\	il	2a\	il	.	.	2dd\	il
.	.	.	.	.	.	4f#\	tra-	.	.
1r	.	4g\	ſol	4b\	ſol	2e\	-he-	4ee\	ſol
.	.	4g\	tra-	4g\	tra-	.	.	4cc\	tra-
.	.	2f#X\	-he-	2a\	-he-	2d\	-a	2dd\	-he-
=20-	=20-	=20-	=20-	=20-	=20-	=20-	=20-	=20-	=20-
2r	.	2f#yX\	-a-	2a\	-a	4r	.	2dd\	-a
.	.	.	.	.	.	4d\	Su`l	.	.
2G\	Su`l	1g	Su`l	2b\	Su`l	4g\	car-	2dd\	Su`l
.	.	.	.	.	.	4fny\	.	.	.
4c\	car-	.	.	2.cc\	car-	4e\	.	2ee\	car-
4B\	.	.	.	.	.	4d\	.	.	.
4A\	.	2.a\	car-	.	.	1c\	.	2ee\	-ro
4G\	.	.	.	4b\	.	.	.	.	.
=21-	=21-	=21-	=21-	=21-	=21-	=21-	=21-	=21-	=21-
2F/	.	.	.	2a\	.	.	.	1ff	d`o-
.	.	4fny\	-ro	.	.	.	.	.	.
2D/	-ro	4f\	d`o-	2a\	-ro	2d\	-ro	.	.
.	.	8e\	.	.	.	.	.	.	.
.	.	8d\	.	.	.	.	.	.	.
2A\	d`o-	2c/	.	2a\	d`o-	2e\	d`o-	2ee\	-ro il
2D/	-ro il	2d\	-ro il	2a\	-ro il	2f\	-ro il	2.dd\	gior-
=22-	=22-	=22-	=22-	=22-	=22-	=22-	=22-	=22-	=22-
1A	gior-	2e\	gior-	4a\	gior-	2.e\	gior-	.	.
.	.	.	.	8g\	.	.	.	4cc\	.
.	.	.	.	8f\	.	.	.	.	.
*	*	*	*	*custos:e	*	*	*	*	*
!	!	!	!	!LO:LB:g=original	!	!	!	!	!
.	.	2c/	-no	4e\	.	.	.	1cc	.
.	.	.	.	4f\	.	8d\	.	.	.
.	.	.	.	.	.	8c\	.	.	.
1G	-no	2r	.	1g	.	1d	.	.	.
.	.	2g\	On-	.	.	.	.	2b/	.
*	*	*custos:e	*	*	*	*	*	*custos:cc	*
!	!	!LO:LB:g=original	!	!	!	!	!	!LO:LB:g=original	!
=23-	=23-	=23-	=23-	=23-	=23-	=23-	=23-	=23-	=23-
2r	.	1e	-d`io	1g	-no	1c	-no	1cc	-no
2c\	On-	.	.	.	.	.	.	.	.
*custos:A	*	*	*	*	*	*	*	*	*
!LO:LB:g=original	!	!	!	!	!	!	!	!	!
2.A\	-d`io	1r	.	0r	.	2f\	On-	1r	.
*	*	*	*ij	*	*	*custos:e	*	*	*
!	!	!	!	!	!	!LO:LB:g=original	!	!	!
.	.	.	.	.	.	2.e\	-d`io	.	.
4A\	grin-	.	.	.	.	.	.	.	.
=24-	=24-	=24-	=24-	=24-	=24-	=24-	=24-	=24-	=24-
4G\	-dan-	2r	.	.	.	.	.	1r	.
4A\	-do	.	.	.	.	4c/	gri-	.	.
2F/	all`ho-	2a\	On-	.	.	4c/	-dan-	.	.
.	.	.	.	.	.	4d\	-do all`-	.	.
1C	-ra	1g	-d`io	2r	.	2e\	-ho-	2gg\	On-
.	.	.	.	2cc\	On-	2c/	-ra	2.ee\	-d`io
*	*	*	*Xij	*	*	*	*	*	*
=25-	=25-	=25-	=25-	=25-	=25-	=25-	=25-	=25-	=25-
0r	.	1r	.	2.a\	-d`io	00r	.	.	.
.	.	.	.	.	.	.	.	4ff\	gri-
.	.	.	.	.	.	.	.	4ee\	-dan-
.	.	.	.	4a\	grin-	.	.	4cc\	-do
.	.	2r	.	4g\	-dan-	.	.	4dd\	all`-
.	.	.	.	4e/	-do	.	.	2ee\	-ho-
.	.	1a\	On-	2f\	all`ho-	.	.	.	.
.	.	.	.	.	.	.	.	4dd\	.
=26-	=26-	=26-	=26-	=26-	=26-	=26-	=26-	=26-	=26-
1c	On-	.	.	2e/	-ra	.	.	1ee	-ra
*	*	*	*	*	*ij	*	*	*	*
.	.	2g\	-d`io	2.cc\	On-	.	.	.	.
2.A\	-d`io	4r	.	.	.	.	.	1r	.
.	.	4f\	grin-	2a\	-d`io	.	.	.	.
.	.	4e\	-dan-	.	.	.	.	.	.
4A\	grin-	4c/	-do	4cc\	grin-	.	.	.	.
=27-	=27-	=27-	=27-	=27-	=27-	=27-	=27-	=27-	=27-
4G\	-dan-	4d\	all`ho-	4b\	-dan-	0r	.	1r	.
4E/	-do	2e\	.	4cc\	-do	.	.	.	.
2F/	all`ho-	.	.	2a\	all`ho-	.	.	.	.
.	.	4d\	.	.	.	.	.	.	.
2E/	-ra	2e\	-ra	2g#X\	-ra	.	.	2r	.
*	*	*	*	*	*Xij	*	*	*	*
1F\	Diſ-	1c\	diſ-	1a\	diſ-	.	.	1ff\	Diſ-
=28-	=28-	=28-	=28-	=28-	=28-	=28-	=28-	=28-	=28-
.	.	.	.	.	.	2r	.	.	.
2C/	-si	2c/	-si	2gny\	-si	2e\	A-	2ee\	-si
1r	.	2f\	Apol-	2r	.	2a\	-pol-	2r	.
.	.	4e\	-lo	2g\	A-	4g\	-lo	2b/	A-
.	.	4d\	che	.	.	4f\	che	.	.
*	*	*	*	*custos:cc	*	*	*	*	*
!	!	!	!	!LO:LB:g=original	!	!	!	!	!
=29-	=29-	=29-	=29-	=29-	=29-	=29-	=29-	=29-	=29-
x0r	.	2c/	tar-	2cc\	-pol-	2e\	tar	2ee\	-pol-
*	*	*custos:d	*	*	*	*	*	*	*
!	!	!LO:LB:g=original	!	!	!	!	!	!	!
.	.	2d\	-di	4b\	-lo	2f#X\	di ec-	4dd\	-lo
.	.	.	.	4a\	che	.	.	4cc\	che
.	.	4e\	ec-	2g\	tar-	2g\	-co	2b/	tar
.	.	4e\	-co l`Au-	.	.	.	.	.	.
.	.	2A/	-ro-	2a\	-di ec-	2e\	-l`Au-	2cc\	di ec-
*	*	*	*	*	*	*	*	*custos:dd	*
!	!	!	!	!	!	!	!	!LO:LB:g=original	!
=30-	=30-	=30-	=30-	=30-	=30-	=30-	=30-	=30-	=30-
2r	.	1G	-ra	4b\	-co	1g	-ro-	4dd\	-co
.	.	.	.	4cc\	l`Au-	.	.	4ee\	l`Au-
2G\	A-	.	.	2b\	-ro-	.	.	2dd\	-ro-
2c\	-pol-	4r	.	2cc\	-ra	2g\	-ra	4cc\	-ra
.	.	4e\	A-	.	.	.	.	4.g/	ec-
*custos:B	*	*	*	*	*	*	*	*	*
!LO:LB:g=original	!	!	!	!	!	!	!	!	!
4B\	-lo	4d\	-pol-	2r	.	4r	.	.	.
.	.	.	.	.	.	.	.	8g/	-co
4A\	che	4f\	-lo	.	.	4c/	A-	4a/	l`Au-
=31-	=31-	=31-	=31-	=31-	=31-	=31-	=31-	=31-	=31-
2G\	tar-	4e\	che	2r	.	2g\	-pol-	2b/	-ro-
.	.	2d\	tar-	.	.	.	.	.	.
*	*	*	*	*	*ij	*custos:f	*	*	*
!	!	!	!	!	!	!LO:LB:g=original	!	!	!
2A\	-di	.	.	4r	.	4fny\	-lo	2a/	-ra
.	.	4c/	-di ec-	2a\	A-	4e\	che	.	.
2r	.	4f\	-co	.	.	2d\	tar-	1r	.
.	.	2a\	l`Au-	4dd\	-pol-	.	.	.	.
*	*ij	*	*	*	*	*	*	*	*
2E/	A-	.	.	4cc\	-lo	2e\	-di	.	.
.	.	4g#X\	-ro-	4b\	che	.	.	.	.
=32-	=32-	=32-	=32-	=32-	=32-	=32-	=32-	=32-	=32-
2A\	-pol-	2a\	-ra	2cc\	tar-	2r	.	2r	.
*	*	*	*	*	*	*	*ij	*	*
4G\	-lo	2r	.	4b\	-di ec-	2B/	A-	2dd\	A-
4F\	che	.	.	4a\	-co	.	.	.	.
2E/	tar-	1r	.	2g\	l`Auro-	2e\	-pol-	2gg\	-pol-
2F/	-di	.	.	2a\	-ra	4d\	-lo	4ff\	-lo
.	.	.	.	.	.	4c\	che	4ee\	che
*	*Xij	*	*	*	*Xij	*	*	*	*
=33-	=33-	=33-	=33-	=33-	=33-	=33-	=33-	=33-	=33-
2G\	ecco	2r	.	4r	.	2B/	tar-	2dd\	tar-
.	.	.	.	4g\	ec-	.	.	.	.
*	*	*	*	*custos:e	*	*	*	*	*
!	!	!	!	!LO:LB:g=original	!	!	!	!	!
2A\	l`Au-	2A/	ec-	4e/	-co	2c/	-di	2cc\	-di ec-
.	.	.	.	4f\	l`Au-	.	.	.	.
*	*	*	*	*	*	*	*Xij	*	*
0G	-ro-	2B/	-co	1g	-ro-	2d\	ecco	4b/	-co
.	.	.	.	.	.	.	.	2dd\	l`Au-
.	.	2c/	l`Au-	.	.	2e\	l`Au-	.	.
.	.	.	.	.	.	.	.	2cc\	-ro-
=34-	=34-	=34-	=34-	=34-	=34-	=34-	=34-	=34-	=34-
.	.	1d	-ro-	0g	-ra	2d\	-ro-	.	.
.	.	.	.	.	.	.	.	8b/	.
.	.	.	.	.	.	.	.	8a/	.
.	.	.	.	.	.	2G/	-ra	2b/	.
*	*	*custos:c	*	*	*	*	*	*custos:cc	*
!	!	!LO:LB:g=original	!	!	!	!	!	!LO:LB:g=original	!
2C/	-ra	1c	-ra	.	.	4r	.	1cc	-ra
.	.	.	.	.	.	4g\	On-	.	.
2c\	On-	.	.	.	.	2e\	-d`io	.	.
=35-	=35-	=35-	=35-	=35-	=35-	=35-	=35-	=35-	=35-
2.A\	-d`io	2f\	On-	0r	.	1r	.	0r	.
.	.	2.e\	-d`io	.	.	.	.	.	.
4G\	grin-	.	.	.	.	.	.	.	.
4G\	-dan-	.	.	.	.	2r	.	.	.
4A\	-do	4c/	grin-	.	.	.	.	.	.
*custos:F	*	*	*	*	*	*	*ij	*	*
!LO:LB:g=original	!	!	!	!	!	!	!	!	!
2F/	al-	4c/	-dan-	.	.	2a\	On-	.	.
.	.	4d\	-do	.	.	.	.	.	.
=36-	=36-	=36-	=36-	=36-	=36-	=36-	=36-	=36-	=36-
1C	-l`hora	2e\	all`ho-	2r	.	1g	-d`io	2gg\	On-
.	.	2c/	-ra	2cc\	On-	.	.	2.ee\	-d`io
1r	.	1r	.	2.a\	-d`io	1r	.	.	.
.	.	.	.	.	.	.	.	4ff\	grin-
.	.	.	.	.	.	.	.	4ee\	-dan-
.	.	.	.	4a\	grin-	.	.	4cc\	-do
*	*	*	*	*	*	*	*Xij	*	*
=37-	=37-	=37-	=37-	=37-	=37-	=37-	=37-	=37-	=37-
1r	.	00r	.	4g\	-dan-	2r	.	4dd\	all`-
.	.	.	.	4e/	-do	.	.	2ee\	-ho-
.	.	.	.	2f\	all`ho-	1a	On-	.	.
.	.	.	.	.	.	.	.	4dd\	.
*	*ij	*	*	*	*	*	*	*	*
1c	On-	.	.	2e/	-ra	.	.	1ee	-ra
*	*	*	*	*	*ij	*custos:g	*	*	*
!	!	!	!	!	!	!LO:LB:g=original	!	!	!
.	.	.	.	2.cc\	On-	2g\	-d`io	.	.
=38-	=38-	=38-	=38-	=38-	=38-	=38-	=38-	=38-	=38-
2.A\	-d`io	.	.	.	.	4r	.	0r	.
.	.	.	.	2a\	-d`io	4f\	On-	.	.
.	.	.	.	.	.	4e\	-d`io	.	.
4A\	grin-	.	.	4cc\	grin-	4c/	grin-	.	.
4G\	-dan-	.	.	4b\	-dan-	4d\	-dan-	.	.
4E/	-do	.	.	4g\	-do	2e\	-do all`-	.	.
2F/	all`ho-	.	.	2a\	all`ho-	.	.	.	.
.	.	.	.	.	.	4d\	-ho-	.	.
=39-	=39-	=39-	=39-	=39-	=39-	=39-	=39-	=39-	=39-
2E/	-gra	1r	.	2g\	-ra	2e\	-ra	2r	.
*	*Xij	*	*	*	*Xij	*	*	*	*
1F	diſ-	.	.	1a	diſ-	1c	diſ-	1ff	Diſ-
.	.	2r	.	.	.	.	.	.	.
2C/	-si	2e\	A-	2g\	-si	2c/	-si A-	2ee\	-si
=40-	=40-	=40-	=40-	=40-	=40-	=40-	=40-	=40-	=40-
0r	.	2a\	-pol-	2r	.	2f\	-pol-	2r	.
.	.	4gny\	-lo	2g\	A-	4e\	-lo	2b/	A-
.	.	4f\	che	.	.	4d\	che	.	.
*	*	*	*	*custos:cc	*	*	*	*	*
!	!	!	!	!LO:LB:g=original	!	!	!	!	!
.	.	2e\	tar-	2cc\	-pol-	2c/	tar-	2ee\	-pol-
.	.	2f#X\	-dic-	4b\	-lo	2d\	-di ec-	4dd\	-lo
.	.	.	.	4a\	che	.	.	4cc\	che
=41-	=41-	=41-	=41-	=41-	=41-	=41-	=41-	=41-	=41-
1r	.	2g\	-co	2g\	tar-	4e\	-co	2b/	tar-
.	.	.	.	.	.	4e\	l`Au-	.	.
.	.	2e\	l`Au-	2a\	-di ec-	2A/	-ro-	2cc\	-di ec-
*	*	*	*	*	*	*	*	*custos:dd	*
!	!	!	!	!	!	!	!	!LO:LB:g=original	!
2r	.	1g	-ro-	4b\	-co	1G	-ra	4dd\	-co
.	.	.	.	4cc\	l`Au-	.	.	4ee\	l`Au-
2G\	A-	.	.	2b\	-ro-	.	.	2dd\	-ro-
*	*	*	*	*	*	*custos:e	*	*	*
!	!	!	!	!	!	!LO:LB:g=original	!	!	!
=42-	=42-	=42-	=42-	=42-	=42-	=42-	=42-	=42-	=42-
2c\	-pol-	2g\	-ra	2cc\	-ra	4r	.	4cc\	-ra
.	.	.	.	.	.	4e\	A-	4.g/	ec-
*	*	*custos:c	*	*	*	*	*	*	*
!	!	!LO:LB:g=original	!	!	!	!	!	!	!
4B\	-lo	4r	.	2r	.	4d\	-pol-	.	.
.	.	.	.	.	.	.	.	8g/	-co
4A\	che	4c/	A-	.	.	4f\	-lo	4a/	l`Au-
2G\	tar-	2g\	-pol-	2r	.	4e\	che	2b/	-ro-
.	.	.	.	.	.	2d\	tar-	.	.
*custos:A	*	*	*	*	*ij	*	*	*	*
!LO:LB:g=original	!	!	!	!	!	!	!	!	!
2A\	-di	4fny\	-lo	4r	.	.	.	2a/	-ra
.	.	4e\	che	2a\	A-	4c/	-di ec-	.	.
=43-	=43-	=43-	=43-	=43-	=43-	=43-	=43-	=43-	=43-
2r	.	2d\	tar-	.	.	4f\	-co	1r	.
.	.	.	.	4dd\	-pol-	2a\	l`Au-	.	.
*	*ij	*	*	*	*	*	*	*	*
2E/	A-	2e\	-di	4cc\	-lo	.	.	.	.
.	.	.	.	4b\	che	4g#X\	-ro-	.	.
2A\	-pol-	2r	.	2cc\	tar-	2a\	-ra	2r	.
*	*	*	*ij	*	*	*	*	*	*
4G\	-lo	2B/	A-	4b\	-di ec-	2r	.	2dd\	A-
4F\	che	.	.	4a\	-co	.	.	.	.
=44-	=44-	=44-	=44-	=44-	=44-	=44-	=44-	=44-	=44-
2E/	tar-	2e\	-pol-	2g\	l`Auro-	1r	.	2gg\	-pol-
2F/	-di	4d\	-lo	2a\	-ra	.	.	4ff\	-lo
*	*Xij	*	*	*	*Xij	*	*	*	*
.	.	4c\	che	.	.	.	.	4ee\	che
2G\	ecco	2B/	tar-	4r	.	2r	.	2dd\	tar-
.	.	.	.	4g\	ec-	.	.	.	.
2A\	l`Au-	2c/	-di	4e/	-co	2A/	ec-	2cc\	-di ec-
.	.	.	.	4f\	l`au-	.	.	.	.
*	*	*	*Xij	*	*	*	*	*	*
=45-	=45-	=45-	=45-	=45-	=45-	=45-	=45-	=45-	=45-
0G	-ro-	2d\	ecco	0g	-ro-	2B/	-co	4b/	-co
.	.	.	.	.	.	.	.	2dd\	l`Au-
.	.	2e\	l`Au-	.	.	2c/	l`Au-	.	.
.	.	.	.	.	.	.	.	2cc\	-ro-
.	.	1d	-ro-	.	.	4d\	-ro-	.	.
.	.	.	.	.	.	4G/	.	8b/	.
.	.	.	.	.	.	.	.	8a/	.
.	.	.	.	.	.	2gny\	.	2b/	.
=46-	=46-	=46-	=46-	=46-	=46-	=46-	=46-	=46-	=46-
00C	-ra.	00c	-ra.	00g	-ra	00e	-ra.	00cc	-ra.
==	==	==	==	==	==	==	==	==	==
*-	*-	*-	*-	*-	*-	*-	*-	*-	*-
!!!system-decoration: [(s1,s2,s3,s4,s5)]
!!!ENC: Filip Voros
!!!END: 2022-07-11
!!!ENC: Natalia Wrzos
!!!END: 2022-08-03
